icons/filled/video.svg

<!--
category: Media
tags: [film, shoot, recording, taping, camera]
version: "1.25"
-->
<svg
  xmlns="http://www.w3.org/2000/svg"
  width="24"
  height="24"
  viewBox="0 0 24 24"
  fill="currentColor"
>
  <path d="M 20.117188,7.625 A 1,1 0 0 0 19.552734,7.724609 L 15,10 v 4 l 4.552734,2.275391 A 1,1 0 0 0 21,15.382812 V 8.6171875 A 1,1 0 0 0 20.117188,7.625 Z" />
  <path d="M 5,5 C 3.3549936,5 2,6.3549936 2,8 v 8 c 0,1.645006 1.3549936,3 3,3 h 8 c 1.645006,0 3,-1.354994 3,-3 V 8 C 16,6.3549936 14.645006,5 13,5 Z" />
</svg>

<!--
category: Media
tags: [film, shoot, recording, taping, camera]
version: "1.25"
-->
<svg
  xmlns="http://www.w3.org/2000/svg"
  width="24"
  height="24"
  viewBox="0 0 24 24"
  fill="currentColor"
>
  <path d="M20.117 7.625a1 1 0 0 0 -.564 .1l-4.553 2.275v4l4.553 2.275a1 1 0 0 0 1.447 -.892v-6.766a1 1 0 0 0 -.883 -.992z" />
  <path d="M5 5c-1.645 0 -3 1.355 -3 3v8c0 1.645 1.355 3 3 3h8c1.645 0 3 -1.355 3 -3v-8c0 -1.645 -1.355 -3 -3 -3z" />
</svg>
